src/svg/world-outline.svg

<svg version="1.2" baseProfile="tiny" xmlns="http://www.w3.org/2000/svg" width="24" height="24" viewBox="0 0 24 24"><path d="M12 2c-4.971 0-9 4.029-9 9s4.029 9 9 9 9-4.029 9-9-4.029-9-9-9zm0 6c0-.553.447-1 1-1s1 .447 1 1v3c-.552 0-1 .448-1 1s.448 1 1 1c.553 0 1-.448 1-1h1v-2l1 1-1 1c0 3 0 3-2 4 0-1-1-1-3-1v-2l-2-2v-2c-1 0-1 1-1 1l-.561-.561-1.652-1.651c1.167-2.247 3.512-3.788 6.213-3.788.688 0 1.353.104 1.981.29-.086.895-.579 1.71-1.481 1.71-1 0-1.5 1-1.5 2v3s1 0 1-3zm0 10c-3.859 0-7-3.14-7-7 0-.776.133-1.521.367-2.219l1.926 1.926 1 1 1.707 1.707v1.586c0 .552.447 1 1 1 .779 0 1.651 0 2.006.091.038.301.209.582.468.742.168.104.36.16.552.16.145 0 .289-.032.422-.098 2.348-1.174 2.539-1.644 2.552-4.479l.708-.708c.391-.391.391-1.023 0-1.414l-1-1c-.192-.192-.448-.294-.708-.294-.129 0-.259.025-.383.076-.373.155-.617.52-.617.924v-2c0-.689-.351-1.298-.883-1.658.421-.411.712-.995.826-1.685 2.392 1.115 4.057 3.535 4.057 6.343 0 3.86-3.141 7-7 7z"/></svg>

<?xml version="1.0" encoding="iso-8859-1"?>
<!-- Generator: Adobe Illustrator 16.2.1, SVG Export Plug-In . SVG Version: 6.00 Build 0)  -->
<svg version="1.2" baseProfile="tiny" xmlns="http://www.w3.org/2000/svg" xmlns:xlink="http://www.w3.org/1999/xlink" x="0px"
	 y="0px" width="24px" height="24px" viewBox="0 0 24 24" xml:space="preserve">
<g id="Layer_1">
	<path d="M12,2c-4.971,0-9,4.029-9,9s4.029,9,9,9s9-4.029,9-9S16.971,2,12,2z M12,8c0-0.553,0.447-1,1-1s1,0.447,1,1v3
		c-0.552,0-1,0.448-1,1s0.448,1,1,1c0.553,0,1-0.448,1-1h1v-2l1,1l-1,1c0,3,0,3-2,4c0-1-1-1-3-1v-2l-2-2V9c-1,0-1,1-1,1L7.439,9.439
		L5.787,7.788C6.954,5.541,9.299,4,12,4c0.688,0,1.353,0.104,1.981,0.29C13.895,5.185,13.402,6,12.5,6c-1,0-1.5,1-1.5,2s0,3,0,3
		S12,11,12,8z M12,18c-3.859,0-7-3.14-7-7c0-0.776,0.133-1.521,0.367-2.219l1.926,1.926l1,1L10,13.414V15c0,0.552,0.447,1,1,1
		c0.779,0,1.651,0,2.006,0.091c0.038,0.301,0.209,0.582,0.468,0.742c0.168,0.104,0.36,0.16,0.552,0.16
		c0.145,0,0.289-0.032,0.422-0.098c2.348-1.174,2.539-1.644,2.552-4.479l0.708-0.708c0.391-0.391,0.391-1.023,0-1.414l-1-1
		C16.516,9.102,16.26,9,16,9c-0.129,0-0.259,0.025-0.383,0.076C15.244,9.231,15,9.596,15,10V8c0-0.689-0.351-1.298-0.883-1.658
		c0.421-0.411,0.712-0.995,0.826-1.685C17.335,5.772,19,8.192,19,11C19,14.86,15.859,18,12,18z"/>
</g>
<g id="nyt_x5F_exporter_x5F_info" display="none">
</g>
</svg>
